X:35
T: NUN SCHLAF MEIN LIEBES KINDELEIN
N: K0130
O: Europa, Mitteleuropa, Deutschland
R: Kinder -, Wiegen - Lied
M: 4/4
L: 1/4
K: F
F | FFAF | ccc
c | dcAB | c2z
c | cccA | ccA
c | BAGG | F2
A2 | cAGG | F4

